05 Lightroom AI Description Generation/test/images/DSC_3877.xmp
<x:xmpmeta xmlns:x="adobe:ns:meta/" x:xmptk="Adobe XMP Core 7.0-c000 1.000000, 0000/00/00-00:00:00        ">
 <rdf:RDF xmlns:rdf="http://www.w3.org/1999/02/22-rdf-syntax-ns#">
  <rdf:Description rdf:about=""
    xmlns:xmp="http://ns.adobe.com/xap/1.0/"
    xmlns:tiff="http://ns.adobe.com/tiff/1.0/"
    xmlns:exif="http://ns.adobe.com/exif/1.0/"
    xmlns:dc="http://purl.org/dc/elements/1.1/"
    xmlns:aux="http://ns.adobe.com/exif/1.0/aux/"
    xmlns:photoshop="http://ns.adobe.com/photoshop/1.0/"
    xmlns:xmpMM="http://ns.adobe.com/xap/1.0/mm/"
    xmlns:stEvt="http://ns.adobe.com/xap/1.0/sType/ResourceEvent#"
    xmlns:crd="http://ns.adobe.com/camera-raw-defaults/1.0/"
    xmlns:crs="http://ns.adobe.com/camera-raw-settings/1.0/"
    xmlns:Iptc4xmpCore="http://iptc.org/std/Iptc4xmpCore/1.0/xmlns/"
   xmp:CreatorTool="NIKON D810 Ver.1.14     "
   xmp:CreateDate="2023-09-06T12:21:59.78"
   xmp:ModifyDate="2023-09-06T12:21:59.78"
   xmp:MetadataDate="2024-01-06T12:30:05Z"
   tiff:Make="NIKON CORPORATION"
   tiff:Model="NIKON D810"
   tiff:Orientation="1"
   tiff:ImageWidth="7360"
   tiff:ImageLength="4912"
   exif:ExifVersion="0231"
   exif:ExposureTime="1/640"
   exif:ShutterSpeedValue="9321928/1000000"
   exif:FNumber="8/1"
   exif:ApertureValue="6/1"
   exif:ExposureProgram="3"
   exif:SensitivityType="2"
   exif:ExposureBiasValue="4/6"
   exif:MaxApertureValue="40/10"
   exif:MeteringMode="5"
   exif:LightSource="11"
   exif:FocalLength="420/10"
   exif:SensingMethod="2"
   exif:FileSource="3"
   exif:SceneType="1"
   exif:FocalLengthIn35mmFilm="42"
   exif:CustomRendered="0"
   exif:ExposureMode="0"
   exif:WhiteBalance="1"
   exif:SceneCaptureType="0"
   exif:GainControl="0"
   exif:Contrast="0"
   exif:Saturation="0"
   exif:Sharpness="0"
   exif:SubjectDistanceRange="0"
   exif:DigitalZoomRatio="1/1"
   exif:FocalPlaneXResolution="67122044/32768"
   exif:FocalPlaneYResolution="67122044/32768"
   exif:FocalPlaneResolutionUnit="3"
   exif:DateTimeOriginal="2023-09-06T12:21:59.78"
   exif:PixelXDimension="7360"
   exif:PixelYDimension="4912"
   dc:format="image/x-nikon-nef"
   aux:SerialNumber="6027604"
   aux:LensInfo="280/10 3000/10 35/10 56/10"
   aux:Lens="28.0-300.0 mm f/3.5-5.6"
   aux:LensID="165"
   aux:ImageNumber="34420"
   aux:ApproximateFocusDistance="200/10"
   photoshop:DateCreated="2023-09-06T12:21:59.78"
   photoshop:CaptionWriter="Writer"
   photoshop:SidecarForExtension="NEF"
   photoshop:EmbeddedXMPDigest="CFAB727ABCF14195B6104C401474DB67"
   xmpMM:DocumentID="E3ACE5BE65BE68E17D47D5B48C2E2E45"
   xmpMM:PreservedFileName="DSC_3877.NEF"
   xmpMM:OriginalDocumentID="E3ACE5BE65BE68E17D47D5B48C2E2E45"
   xmpMM:InstanceID="xmp.iid:98dc3f7c-c855-b54f-94e4-1dceb9a154b4"
   crd:CameraProfile="Camera VIVID"
   crd:LookName=""
   crs:Version="16.1"
   crs:ProcessVersion="15.4"
   crs:WhiteBalance="Custom"
   crs:Temperature="7150"
   crs:Tint="-6"
   crs:Exposure2012="-0.89"
   crs:Contrast2012="0"
   crs:Highlights2012="-100"
   crs:Shadows2012="+39"
   crs:Whites2012="+8"
   crs:Blacks2012="+36"
   crs:Texture="+62"
   crs:Clarity2012="+19"
   crs:Dehaze="0"
   crs:Vibrance="+10"
   crs:Saturation="-7"
   crs:ParametricShadows="0"
   crs:ParametricDarks="0"
   crs:ParametricLights="0"
   crs:ParametricHighlights="0"
   crs:ParametricShadowSplit="25"
   crs:ParametricMidtoneSplit="50"
   crs:ParametricHighlightSplit="75"
   crs:Sharpness="40"
   crs:SharpenRadius="+1.0"
   crs:SharpenDetail="25"
   crs:SharpenEdgeMasking="0"
   crs:LuminanceSmoothing="0"
   crs:ColorNoiseReduction="25"
   crs:ColorNoiseReductionDetail="50"
   crs:ColorNoiseReductionSmoothness="50"
   crs:HueAdjustmentRed="0"
   crs:HueAdjustmentOrange="0"
   crs:HueAdjustmentYellow="0"
   crs:HueAdjustmentGreen="0"
   crs:HueAdjustmentAqua="0"
   crs:HueAdjustmentBlue="0"
   crs:HueAdjustmentPurple="0"
   crs:HueAdjustmentMagenta="0"
   crs:SaturationAdjustmentRed="0"
   crs:SaturationAdjustmentOrange="0"
   crs:SaturationAdjustmentYellow="0"
   crs:SaturationAdjustmentGreen="0"
   crs:SaturationAdjustmentAqua="0"
   crs:SaturationAdjustmentBlue="0"
   crs:SaturationAdjustmentPurple="0"
   crs:SaturationAdjustmentMagenta="0"
   crs:LuminanceAdjustmentRed="0"
   crs:LuminanceAdjustmentOrange="0"
   crs:LuminanceAdjustmentYellow="0"
   crs:LuminanceAdjustmentGreen="0"
   crs:LuminanceAdjustmentAqua="0"
   crs:LuminanceAdjustmentBlue="0"
   crs:LuminanceAdjustmentPurple="0"
   crs:LuminanceAdjustmentMagenta="0"
   crs:SplitToningShadowHue="0"
   crs:SplitToningShadowSaturation="0"
   crs:SplitToningHighlightHue="0"
   crs:SplitToningHighlightSaturation="0"
   crs:SplitToningBalance="0"
   crs:ColorGradeMidtoneHue="0"
   crs:ColorGradeMidtoneSat="0"
   crs:ColorGradeShadowLum="0"
   crs:ColorGradeMidtoneLum="0"
   crs:ColorGradeHighlightLum="0"
   crs:ColorGradeBlending="50"
   crs:ColorGradeGlobalHue="0"
   crs:ColorGradeGlobalSat="0"
   crs:ColorGradeGlobalLum="0"
   crs:AutoLateralCA="1"
   crs:LensProfileEnable="1"
   crs:LensManualDistortionAmount="0"
   crs:VignetteAmount="0"
   crs:DefringePurpleAmount="0"
   crs:DefringePurpleHueLo="30"
   crs:DefringePurpleHueHi="70"
   crs:DefringeGreenAmount="0"
   crs:DefringeGreenHueLo="40"
   crs:DefringeGreenHueHi="60"
   crs:PerspectiveUpright="0"
   crs:PerspectiveVertical="0"
   crs:PerspectiveHorizontal="0"
   crs:PerspectiveRotate="0.0"
   crs:PerspectiveAspect="0"
   crs:PerspectiveScale="100"
   crs:PerspectiveX="0.00"
   crs:PerspectiveY="0.00"
   crs:GrainAmount="0"
   crs:PostCropVignetteAmount="0"
   crs:ShadowTint="0"
   crs:RedHue="0"
   crs:RedSaturation="0"
   crs:GreenHue="0"
   crs:GreenSaturation="0"
   crs:BlueHue="0"
   crs:BlueSaturation="0"
   crs:HDREditMode="0"
   crs:OverrideLookVignette="False"
   crs:ToneCurveName2012="Linear"
   crs:CameraProfile="Adobe Standard"
   crs:CameraProfileDigest="7453B3B4E044C00997A55C30D2002AEF"
   crs:LensProfileSetup="LensDefaults"
   crs:LensProfileName="Adobe (Nikon AF-S NIKKOR 28-300mm f/3.5-5.6 ED VR)"
   crs:LensProfileFilename="NIKON D3X (Nikon AF-S NIKKOR 28-300mm f3.5-5.6 ED VR) - RAW.lcp"
   crs:LensProfileDigest="BF7855A299DFDFAF2ADB5B7CBBF98662"
   crs:LensProfileIsEmbedded="False"
   crs:LensProfileDistortionScale="100"
   crs:LensProfileVignettingScale="100"
   crs:HasSettings="True"
   crs:AlreadyApplied="False"
   crs:RawFileName="DSC_3877.NEF">
   <exif:ISOSpeedRatings>
    <rdf:Seq>
     <rdf:li>250</rdf:li>
    </rdf:Seq>
   </exif:ISOSpeedRatings>
   <exif:Flash
    exif:Fired="False"
    exif:Return="0"
    exif:Mode="2"
    exif:Function="False"
    exif:RedEyeMode="False"/>
   <dc:rights>
    <rdf:Alt>
     <rdf:li xml:lang="x-default">(c) 2019, ownimage, Keith Hart.</rdf:li>
    </rdf:Alt>
   </dc:rights>
   <dc:description>
    <rdf:Alt>
     <rdf:li xml:lang="x-default">Ambassador Caption</rdf:li>
    </rdf:Alt>
   </dc:description>
   <xmpMM:History>
    <rdf:Seq>
     <rdf:li
      stEvt:action="saved"
      stEvt:instanceID="xmp.iid:796b1b32-082d-8e42-bbf5-dc3e7a6a1a6d"
      stEvt:when="2023-09-15T15:21:08+01:00"
      stEvt:softwareAgent="Adobe Photoshop Lightroom Classic 11.3 (Windows)"
      stEvt:changed="/metadata"/>
     <rdf:li
      stEvt:action="saved"
      stEvt:instanceID="xmp.iid:98dc3f7c-c855-b54f-94e4-1dceb9a154b4"
      stEvt:when="2024-01-06T12:30:05Z"
      stEvt:softwareAgent="Adobe Photoshop Lightroom Classic 13.1 (Windows)"
      stEvt:changed="/metadata"/>
    </rdf:Seq>
   </xmpMM:History>
   <crs:ToneCurvePV2012>
    <rdf:Seq>
     <rdf:li>0, 0</rdf:li>
     <rdf:li>255, 255</rdf:li>
    </rdf:Seq>
   </crs:ToneCurvePV2012>
   <crs:ToneCurvePV2012Red>
    <rdf:Seq>
     <rdf:li>0, 0</rdf:li>
     <rdf:li>255, 255</rdf:li>
    </rdf:Seq>
   </crs:ToneCurvePV2012Red>
   <crs:ToneCurvePV2012Green>
    <rdf:Seq>
     <rdf:li>0, 0</rdf:li>
     <rdf:li>255, 255</rdf:li>
    </rdf:Seq>
   </crs:ToneCurvePV2012Green>
   <crs:ToneCurvePV2012Blue>
    <rdf:Seq>
     <rdf:li>0, 0</rdf:li>
     <rdf:li>255, 255</rdf:li>
    </rdf:Seq>
   </crs:ToneCurvePV2012Blue>
   <crs:PointColors>
    <rdf:Seq>
     <rdf:li>-1.000000, -1.000000, -1.000000, -1.000000, -1.000000, -1.000000, -1.000000, -1.000000, -1.000000, -1.000000, -1.000000, -1.000000, -1.000000, -1.000000, -1.000000, -1.000000, -1.000000, -1.000000, -1.000000</rdf:li>
    </rdf:Seq>
   </crs:PointColors>
   <crs:Look>
    <rdf:Description
     crs:Name="Adobe Vivid"
     crs:Amount="1"
     crs:UUID="EA1DE074F188405965EF399C72C221D9"
     crs:SupportsAmount="false"
     crs:SupportsMonochrome="false"
     crs:SupportsOutputReferred="false">
    <crs:Group>
     <rdf:Alt>
      <rdf:li xml:lang="x-default">Profiles</rdf:li>
     </rdf:Alt>
    </crs:Group>
    <crs:Parameters>
     <rdf:Description
      crs:Version="16.1"
      crs:ProcessVersion="15.4"
      crs:Clarity2012="+10"
      crs:ConvertToGrayscale="False"
      crs:CameraProfile="Adobe Standard"
      crs:LookTable="2FE663AB0D3CE5DA7B9F657BBCD66DFE">
     <crs:ToneCurvePV2012>
      <rdf:Seq>
       <rdf:li>0, 0</rdf:li>
       <rdf:li>32, 22</rdf:li>
       <rdf:li>64, 56</rdf:li>
       <rdf:li>128, 128</rdf:li>
       <rdf:li>224, 232</rdf:li>
       <rdf:li>240, 246</rdf:li>
       <rdf:li>255, 255</rdf:li>
      </rdf:Seq>
     </crs:ToneCurvePV2012>
     </rdf:Description>
    </crs:Parameters>
    </rdf:Description>
   </crs:Look>
   <Iptc4xmpCore:ExtDescrAccessibility>
    <rdf:Alt>
     <rdf:li xml:lang="x-default">Hello Ambassador</rdf:li>
    </rdf:Alt>
   </Iptc4xmpCore:ExtDescrAccessibility>
   <Iptc4xmpCore:Scene>
    <rdf:Bag>
     <rdf:li>Scene</rdf:li>
    </rdf:Bag>
   </Iptc4xmpCore:Scene>
  </rdf:Description>
 </rdf:RDF>
</x:xmpmeta>
